X:1
T:Minuet. SenH.134, A
T:Minuet. SenH.134, A
T:in Hand C
C:in Hand C
L:1/8
Q:1/4=100
M:3/4
K:F
V:1 treble 
V:1
 g2 baba | d'2 d2 d2 | ag a2 b2 | agabc'a | bc' d'2 c'b | ab c'2 ba | f2 (b2 a2) | a6 || %8
 bc' d'2 c'b | ab c'2 ba | gababg | a2 d4 | g2 a2 b2 | a2 d'2 a2 | b2 c'bab | g6 |] %16

